X: 1
T: Polska efter Kristina Moberg
K:A fgp=1 transpose=0 tuning=0
F: https://www.youtube.com/watch?v=bt2QUZsPMo8
L:1/8
Q:240
Q: "BPM=80"
M:3/4
A3/2G/ EG AB | =cB/A/ G/A/B/=d/ c2 |
=cB/c/ e=d/c/ BA | G/A/B/=d/ =cB/A/ GE |
A3/2G/ EG AB | =cB/A/ G/A/B/=d/ c2 | =cB/c/ e=d/c/ BA |
G2 A3E | G2 A3e | e3/2=c/ Ac ec | =d3/2e/ ^e=e/_f/ d2 | =d3/2B/ =GB dB | =c3/2=d/ ed/e/ c2 |
A3/2G/ EG AB | =cB/A/ G/A/B/=d/ c2 |
=cB/c/ e=d/c/ BA | G2 A3e |
